resources/haticons/SVG/switch-off.svg

<!-- Generated by IcoMoon.io -->
<svg version="1.1" xmlns="http://www.w3.org/2000/svg" width="24" height="24" viewBox="0 0 24 24">
<title>switch-off</title>
<path d="M6.977 17.786h10.047c3.181 0 5.786-2.586 5.786-5.786s-2.586-5.786-5.786-5.786h-10.047c-3.181 0-5.786 2.586-5.786 5.786s2.605 5.786 5.786 5.786zM6.977 7.74h10.047c2.344 0 4.26 1.916 4.26 4.26s-1.916 4.26-4.26 4.26h-10.047c-2.344 0-4.26-1.916-4.26-4.26s1.916-4.26 4.26-4.26zM6.977 15.219c1.767 0 3.219-1.451 3.219-3.219s-1.451-3.219-3.219-3.219-3.219 1.451-3.219 3.219 1.451 3.219 3.219 3.219zM6.977 10.307c0.93 0 1.693 0.763 1.693 1.693s-0.763 1.693-1.693 1.693-1.693-0.763-1.693-1.693 0.763-1.693 1.693-1.693z"></path>
</svg>

<svg xmlns="http://www.w3.org/2000/svg" width="24" height="24"><path d="M6.977 17.786h10.047c3.181 0 5.786-2.586 5.786-5.786s-2.586-5.786-5.786-5.786H6.977C3.796 6.214 1.191 8.8 1.191 12s2.605 5.786 5.786 5.786zm0-10.046h10.047c2.344 0 4.26 1.916 4.26 4.26s-1.916 4.26-4.26 4.26H6.977c-2.344 0-4.26-1.916-4.26-4.26s1.916-4.26 4.26-4.26zm0 7.479c1.767 0 3.219-1.451 3.219-3.219S8.745 8.781 6.977 8.781 3.758 10.232 3.758 12s1.451 3.219 3.219 3.219zm0-4.912c.93 0 1.693.763 1.693 1.693s-.763 1.693-1.693 1.693S5.284 12.93 5.284 12s.763-1.693 1.693-1.693z"/></svg>
